icons/Communication/chat-settings-line.svg

<svg viewBox="0 0 24 24" xmlns="http://www.w3.org/2000/svg"><path d="M22 12H20V5H4V18.3851L5.76282 17H12V19H6.45455L2 22.5V4C2 3.44772 2.44772 3 3 3H21C21.5523 3 22 3.44772 22 4V12ZM14.145 19.071C14.0505 18.7301 14 18.371 14 18C14 17.629 14.0505 17.2699 14.145 16.929L13.1699 16.366L14.1699 14.634L15.1459 15.1975C15.6475 14.6867 16.2851 14.31 17 14.126V13H19V14.126C19.7149 14.31 20.3525 14.6867 20.8541 15.1975L21.8301 14.634L22.8301 16.366L21.855 16.929C21.9495 17.2699 22 17.629 22 18C22 18.371 21.9495 18.7301 21.855 19.071L22.8301 19.634L21.8301 21.366L20.8541 20.8025C20.3525 21.3133 19.7149 21.69 19 21.874V23H17V21.874C16.2851 21.69 15.6475 21.3133 15.1459 20.8025L14.1699 21.366L13.1699 19.634L14.145 19.071ZM18 20C19.1046 20 20 19.1046 20 18C20 16.8954 19.1046 16 18 16C16.8954 16 16 16.8954 16 18C16 19.1046 16.8954 20 18 20Z"/></svg>

<svg xmlns="http://www.w3.org/2000/svg" viewBox="0 0 24 24">
    <g>
        <path fill="none" d="M0 0h24v24H0z"/>
        <path d="M22 12h-2V5H4v13.385L5.763 17H12v2H6.455L2 22.5V4a1 1 0 0 1 1-1h18a1 1 0 0 1 1 1v8zm-7.855 7.071a4.004 4.004 0 0 1 0-2.142l-.975-.563 1-1.732.976.563A3.996 3.996 0 0 1 17 14.126V13h2v1.126c.715.184 1.353.56 1.854 1.071l.976-.563 1 1.732-.975.563a4.004 4.004 0 0 1 0 2.142l.975.563-1 1.732-.976-.563c-.501.51-1.14.887-1.854 1.071V23h-2v-1.126a3.996 3.996 0 0 1-1.854-1.071l-.976.563-1-1.732.975-.563zM18 20a2 2 0 1 0 0-4 2 2 0 0 0 0 4z"/>
    </g>
</svg>
